public/assets/imgs/projetos/pin.svg

<svg fill="none" height="61" viewBox="0 0 37 61" width="37" xmlns="http://www.w3.org/2000/svg"><path clip-rule="evenodd" d="m37 20.5c0 4.4736-1.2932 8.6126-3.4879 11.9829l-15.0121 28.5171-15.01207-28.5171c-2.19474-3.3703-3.48793-7.5093-3.48793-11.9829 0-11.32184 8.28273-20.5 18.5-20.5 10.2173 0 18.5 9.17816 18.5 20.5zm-18.5 8c5.2332 0 9.4756-3.701 9.4756-9.5s-4.2424-9.5-9.4756-9.5-9.47561 3.701-9.47561 9.5 4.24241 9.5 9.47561 9.5z" fill="#000" fill-rule="evenodd"/></svg>

<svg width="37" height="61" viewBox="0 0 37 61" fill="none" xmlns="http://www.w3.org/2000/svg">
<path fill-rule="evenodd" clip-rule="evenodd" d="M37 20.5C37 24.9736 35.7068 29.1126 33.5121 32.4829L18.5 61L3.48793 32.4829C1.29319 29.1126 0 24.9736 0 20.5C0 9.17816 8.28273 0 18.5 0C28.7173 0 37 9.17816 37 20.5ZM18.5 28.5C23.7332 28.5 27.9756 24.799 27.9756 19C27.9756 13.201 23.7332 9.5 18.5 9.5C13.2668 9.5 9.02439 13.201 9.02439 19C9.02439 24.799 13.2668 28.5 18.5 28.5Z" fill="black"/>
</svg>
